X:56
T: Graserin und Reiter
N: Q0149D
O: Mitteleuropa, Deutschland
N: Tenorstimme aus einem vierstimmigen Satz von Hans Teuglin mit
N: aehnlichem Text. Zusammengehoerigkeit mit der Balladengruppe
N: fraglich. Taktart in "FREI" geaendert. Letzte Zeile = Refrain auf
N: sinnfreie Silben.
R: Ballade, Verfuehrung, Verlassen des Elternhauses
M: none
L: 1/8
K: F
f2 | f4f4 | e2f2 | g3fe2 | d4
e2 | f4f4 | e2c2 | d3cA2 | d2c2A2 | F4
F4 | c2c2 | d4e2 | f2f2
e2 | d2c2B2 | A2G4 | F2z2
f2 | f2f2f2 | f2e2c2 | dcBAG2 | F2z2
c2 | c2cccB | A2AAGG | F2AGF | A2AABG | F4

